X: 1
T: Jean's reel
C: Bobby MacLeod
R: Reel
N: Tune for Glastonbury Tor
B: RSCDS 47-11
M: 4/4
K: F
"A"[|] A2 |\
"F"F2FG AFAc | "F"fA (3AAA "Dm"dAcA | "Gm"GFGA GFD2 | "Gm"GBAG "C7"FEDC |
"F"F2FG AFAc | "F"fgaf "Bb"gfdf | "F"c2Ac "Dm"fdcA | "C7"GFEG "F"F2 ||
"B"[|] Ac |\
"F"fAcf AcfA | "F"cfAc fAcf | "C7"eccg ecgc | "F"fefg "C7"acfg |
"F"afge "Dm"fedc | "Bb"defe "F"dcAc | "Bb"d2cA "F"fdcA | "C7"GFEG "F"F2 |]
"C"[|] FG |\
"F"ACCA CCAC | "F"FACF ACFA | "C7"ECCG ECGC | "C7"cC=Bc _BGEG |
"F"ACCA CCAC | "F"FACF ACFA | "C7"GCEG cC=Bc | "C7"BGEG "F"F2 ||
"B"[|] Ac |\
"F"fAcf AcfA | "F"cfAc fAcf | "C7"eccg ecgc | "F"fefg "C7"acfg |
"F"afge "Dm"fedc | "Bb"defe "F"dcAc | "Bb"d2cA "F"fdcA | "C7"GFEG "F"F2 |]
%%center Book47/4711-Jeans_Reel-F-32-8.abc

%%sep 1 1 500
%%sep 1 1 500

